!!!COM: Bach, Johann Sebastian
!!!OTA: Das wohltemperirte Clavier
!!!OPR: Das wohltemperierte Klavier
!!!OTL: Fuga 5, Vol. 2
!!!XEN: The Well-Tempered Clavier, Volume 2, Fugue 5.
!!!ONB: D major, 4-part
!!!SCT: BWV 874b
!!!YEC: Copyright 1994, David Huron
!!!YEM: Rights to all derivative electronic formats reserved.
**kern	**kern	**kern	**kern
*staff2	*staff2	*staff1	*staff1
*clefF4	*clefF4	*clefG2	*clefG2
*k[f#c#]	*k[f#c#]	*k[f#c#]	*k[f#c#]
*M2/2	*M2/2	*M2/2	*M2/2
*D:	*D:	*D:	*D:
*MM92	*MM92	*MM92	*MM92
=1	=1	=1	=1
1r	8r	1r	1r
.	8d	.	.
.	8d	.	.
.	8d	.	.
.	4G	.	.
.	[4B	.	.
=2	=2	=2	=2
1r	8B]	2r	1r
.	8E	.	.
.	8A	.	.
.	8G	.	.
.	4F#	8r	.
.	.	8a	.
.	4D	8a	.
.	.	8a	.
=3	=3	=3	=3
1r	8r	4d	1r
.	8F#	.	.
.	8B	4f#	.
.	8A	.	.
.	2G#	8r	.
.	.	8B	.
.	.	8e	.
.	.	8d	.
=4	=4	=4	=4
1r	4A	8c#	1r
.	.	8e	.
.	4c#	8a	.
.	.	8g	.
.	8r	4f#	.
.	8A	.	.
.	8d	[4a	.
.	8c#	.	.
=5	=5	=5	=5
1r	2B	8a]	8r
.	.	8d	8dd
.	.	8g	8dd
.	.	8f#	8dd
.	8r	8e	4g
.	8B	8f#	.
.	8e	[4g	[4b
.	8d	.	.
=6	=6	=6	=6
8r	2c#	4g]	8b]
8A	.	.	8e
8A	.	8f#	8a
8A	.	8e	8g
4D	8r	4d	2f#
.	8A	.	.
[4F#	8d	4r	.
.	8c#	.	.
=7	=7	=7	=7
8F#]	2B	4r	2g#
8BB	.	.	.
8E	.	8r	.
8D	.	8B	.
8C#	8r	8e	4a
8BB	8E	8d	.
4AA	8A	[4c#	8r
.	8G	.	8e
=8	=8	=8	=8
8r	8F#	4c#]	8a
8AA	8E	.	8g
8D	4D	8r	[4f#
8C#	.	8A	.
8BB	8r	8d	4f#]
8AA	8D	8c#	.
[4GG	8G	4B	8e
.	8F#	.	8d
=9	=9	=9	=9
8GG]	4E	4A	4c#
8FF#	.	.	.
8BB	8D	8G#	[4d
8AA	8C#	8F#	.
2GG#	2BB	2E	8d]
.	.	.	16b
.	.	.	16a
.	.	.	8b
.	.	.	8d
=10	=10	=10	=10
4AA	[2E	8r	4c#
.	.	8e	.
4GGn	.	8e	4r
.	.	8e	.
2FF#	8E]	4A	8r
.	8G	.	8e
.	8F#	[4cn	8a
.	8E	.	8g
=11	=11	=11	=11
[1BB	2D#	8c]	2f#
.	.	8F#	.
.	.	8B	.
.	.	8A	.
.	8E	8G	8r
*	*strophe	*	*
*	*^	*	*
*	*S/sic	*S/ossia	*	*
.	8Dnxx	8D#xx	8B	8b
*	*S/fin	*S/fin	*	*
*	*v	*v	*	*
*	*S-	*	*
.	[4G	8e	8b
.	.	8d	8b
=12	=12	=12	=12
2.BB]	4G]	8c#	4e
.	.	8B	.
.	8C#	8A#	[4g
.	8D	8B	.
.	8E	8c#	8g]
.	8G	8e	8c#
4AA#	[4F#	8d	8f#
.	.	8c#	8e
=13	=13	=13	=13
4BB	8F#]	4B	8d
.	8An	.	8f#
4r	8G#	4r	8b
.	8F#	.	8a
8r	[2E	2r	8g#
8D	.	.	8b
8C#	.	.	8ee
8BB	.	.	8dd
=14	=14	=14	=14
4AA	8E]	8r	4cc#
.	8E	8a	.
8r	8A	8a	4r
8AA	8G	8a	.
4BB	8F#	4d	8r
.	8E	.	8dd
8r	4D	[4f#	8dd
8BB	.	.	8dd
=15	=15	=15	=15
4EE	8E	8f#]	4g
.	8F#	8B	.
8r	[4G	8e	[4b
8E	.	8d	.
4AA	8G]	2c#	8b]
.	8G	.	8e
8r	8F#	.	8a
8AA	8E	.	8g
=16	=16	=16	=16
4DD	4D	8r	4f#
.	.	8A	.
4r	4r	8d	8r
.	.	8cn	8a
2r	2r	8B	8dd
.	.	8d	8ccn
.	.	8g	8b
.	.	8f#	8dd
=17	=17	=17	=17
1r	8r	8e	4gg
.	8E	8d	.
.	8A	4c#	8ff#
.	8G	.	8ee
.	8F#	8d	8aa
.	8A	8e	8gg
.	8d	[4f#	8ff#
.	8c#	.	8ee
=18	=18	=18	=18
8r	4B	4f#]	4dd
8BB	.	.	.
8E	4r	[4g#	8cc#
8D	.	.	8b
8C#	8r	4g#]	8ee
8E	8B	.	8dd
8A	[4c#	8a	8cc#
8G#	.	8e	8b
=19	=19	=19	=19
8F#	8c#]	8a	8a
8E	8A	8g#	8cc#
[4D	8d	4f#	8b
.	8c#	.	8a
8D]	4B	4e	8g#
8C#	.	.	8e
8F#	8A	8d	[4a
8E	8G#	8c#	.
=20	=20	=20	=20
4D	4F#	8B	4.a]
.	.	8c#	.
4E	[4E	[4d	.
.	.	.	8g#
4AA	4E]	8d]	[2a
.	.	8c#	.
8r	4r	8f#	.
8FF#	.	8e	.
=21	=21	=21	=21
4BB	8r	4d#	8a]
.	8B	.	8f#
4r	8B	4r	8b
.	8B	.	8a
8r	4E	8r	4g
8D	.	8B	.
8C#	[4G	8e	4r
8BB	.	8dn	.
=22	=22	=22	=22
4AA#	8G]	8c#	8r
.	8C#	8r	8ff#
8r	8F#	4r	8ff#
8AA#	8E	.	8ff#
4AAn	8D#	8r	4b
.	16E#	8b	.
.	16F#	.	.
8r	4E#	8b	[4dd
8GG#	.	8b	.
=23	=23	=23	=23
4C#	8r	4en	8dd]
.	8B	.	8g#
8r	8A#	[4gn	8cc#
8E	[8c#	.	8b
8FF#	8c#]	8g]	4a#
8F#	8e	8c#	.
8G#	8d	8f#	8b
8A#	8c#	8e	8cc#
=24	=24	=24	=24
8B	[2B	8d	[2dd
8An	.	8f#	.
8G#	.	8b	.
8F#	.	8a	.
2E#	8B]	[2g#	4dd]
.	8G#	.	.
.	8c#	.	[4cc#
.	8B	.	.
=25	=25	=25	=25
8r	[2A	8g#]	2cc#_
8F#	.	8c#	.
8F#	.	8f#	.
8F#	.	8e	.
4BB	8A]	4.d	8cc#]
.	8F#	.	16b
.	.	.	16a
[4D	8B	.	8g#
.	8A	8c#	8f#
=26	=26	=26	=26
8D]	[2G#	[2B	[2e#
8GG#	.	.	.
8C#	.	.	.
8BB	.	.	.
4.AA	8G#]	8B]	8e#]
.	16F#	16A	8c#
.	16G#	16B	.
.	4A	8c#	[4f#
8BB	.	8d	.
=27	=27	=27	=27
2C#	8G#	4.c#	4f#]
.	8F#	.	.
.	4G#	.	4e#
.	.	8B	.
8FF#	8F#	8A	4f#
8A	8r	8r	.
8A	4r	4r	8r
8A	.	.	8aa
=28	=28	=28	=28
4D	2r	8r	8aa
.	.	8a	8aa
[4F#	.	8a	4dd
.	.	8a	.
8F#]	8r	8d	4.ff#
8BB	8D	8r	.
8E	8G	4r	.
8D	8F#	.	8b
=29	=29	=29	=29
8C#	4E	8r	8ee
8BB	.	8e	8dd
4AA	8r	8a	4cc#
.	8A	8g	.
2r	8d	4f#	8r
.	8cn	.	8a
.	[4B	8r	8dd
.	.	8d	8ccn
=30	=30	=30	=30
8r	8B]	8g	4b
8BB	8A	8f#	.
8E	4G	4e	8r
8D	.	.	8b
8Cn	8r	4r	8ee
8BB	8E	.	8dd
[4AA	8A	8r	[4ccn
.	8G	8e	.
=31	=31	=31	=31
4AA]	8F#	8a	2cc]
.	8E	8g	.
[4BB	8D	8f#	.
.	8F#	8d	.
8BB]	8B	8g	[2b
8D	8A	8f#	.
8G	[4G	8e	.
8F#	.	8d	.
=32	=32	=32	=32
8E	8G]	4cn	8b]
8F#	8A	.	4a
8G	8B	4B	.
8E	8e	.	[8g
8Cn	2A	4e	8g]
8AA	.	.	16f#
.	.	.	16e
8D	.	[4d	4f#
8C	.	.	.
=33	=33	=33	=33
8BB	8G	8d]	8g
8D	8d	8r	8r
8G	8d	8r	4r
8F#	8d	8b	.
[2E	4G	8b	8r
.	.	8b	8gg
.	[4B	4e	8gg
.	.	.	8gg
=34	=34	=34	=34
8E]	8B]	4.g	4cc#
8D	8E	.	.
8C#	8A	.	[4ee
8AA	8G	8c#	.
8D	[2F#	8f#	8ee]
8Cn	.	8e	8a
8BB	.	[4d	8dd
8AA	.	.	8ccn
=35	=35	=35	=35
4GG	8F#]	4d]	[2b
.	8BB	.	.
4GG#	8E	8r	.
.	8D	8B	.
2AA	8C#	8e	8b]
.	8D	8d	8e
.	[4E	[4c#	8a
.	.	.	8g
=36	=36	=36	=36
2AA#	8E]	4c#]	4f#
.	8C#	.	.
.	8F#	8r	[4cc#
.	8E	8c#	.
[2BB	8D	8f#	8cc#]
.	8r	8e	8f#
.	8r	[4d	8b
.	8F#	.	8a
=37	=37	=37	=37
8BB]	8B	4d]	[2g
8BB	8A	.	.
8E	4G	8r	.
8D	.	8B	.
8C#	2r	8e	4.g]
8E	.	8d	.
8A	.	[4c#	.
8G	.	.	8e
=38	=38	=38	=38
8F#	1r	8c#]	8a
8A	.	8c#	8g
8d	.	8f#	8f#
8c#	.	8e	8a
8B	.	8d	8dd
8A	.	8f#	8cc#
8G	.	8b	8b
8F#	.	8a	8dd
=39	=39	=39	=39
8E	1r	8g	[2gg
8D	.	8b	.
8C#	.	8ee	.
8BB	.	8dd	.
8AA	.	2cc#	8gg]
8GG	.	.	8ee
8FF#	.	.	8aa
8EE	.	.	8gg
=40	=40	=40	=40
8DD	8r	8dd	8ff#
8r	8d	8ee	8gg
8r	8d	[4ff#	[4aa
8D	8d	.	.
4E	4G	8ff#]	8aa]
.	.	8b	8dd
8r	[4B	8ee	8gg
8E	.	8dd	8ff#
=41	=41	=41	=41
8A	8B]	4cc#	[2ee
8G	8E	.	.
8F#	8A	8r	.
8E	8G	8e	.
8D	8F#	8a	4ee]
8E	8G	8g	.
[4F#	[4A	8f#	8dd
.	.	8e	8ccn
=42	=42	=42	=42
8F#]	8A]	4d	[2b
8BB	8D	.	.
8E	8G	8c#	.
8D	8F#	8d	.
8C#	4E	8e	8b]
8BB	.	8d	8e
[4AA	4r	8c#	8a
.	.	[8e	8g
=43	=43	=43	=43
8AA]	1r	8e]	4f#
8A	.	4d	.
8A	.	.	4e
8A	.	8c#	.
8D#	.	8cn	8f#
8E	.	8B	8g#
[4Fn	.	8A	[4a
.	.	8c	.
=44	=44	=44	=44
8F]	8r	8d	4a]
8BB	8B	16e	.
.	.	16fn	.
8E	8B	[4e	4g#
8D	8B	.	.
8C#	8E	8e]	8a
8AA	8r	8r	8aa
8D	4r	8r	8aa
8C#	.	8ff#	8aa
=45	=45	=45	=45
8BB	8r	8ff#	4dd
8r	8d	8ff#	.
8r	8d	4b	[4ff#
8B	8d	.	.
8B	4G	4.dd	8ff#]
8B	.	.	8b
4E	[4B	.	8ee
.	.	8g#	8dd
=46	=46	=46	=46
4.Gn	8B]	8cc#	2cc#
.	8E	8b	.
.	8A	[4a	.
8C#	8G	.	.
8F#	4.F#	8a]	[2ccn
8E	.	8g	.
[4D	.	8f#	.
.	8A	8e	.
=47	=47	=47	=47
4D]	8d	2f#	8cc]
.	8cn	.	8a
8r	8B	.	8dd
8D	8A	.	8ccn
8G	[2G	8r	[2b
8F#	.	8d	.
8E	.	8g	.
8D	.	8f#	.
=48	=48	=48	=48
4C#	8G]	8e	4b]
.	8E	8d	.
8r	8A	4c#	[2.a
8AA	8G	.	.
8D	[2F#	8r	.
8Cn	.	8A	.
8BB	.	8d	.
8AA	.	8cn	.
=49	=49	=49	=49
2GG	8F#]	4.B	4a]
.	8BB	.	.
.	8E	.	[4g
.	8D	8B	.
*	*strophe	*	*
*	*^	*	*
*	*S/sic	*S/ossia	*	*
[2AA	8C#	8C#	8e	8g]
.	8BB	8D	8d	8e
.	4AA	4E	8c#	8a
.	.	.	[8e	8g
*	*S/fin	*S/fin	*	*
*	*v	*v	*	*
*	*S-	*	*
=50	=50	=50	=50
2AA]	8r	8e]	4f#
.	8D	4d	.
.	8A	.	4e
.	8G	8c#	.
2DD	2F#	2A	2d
==	==	==	==
*-	*-	*-	*-
!!!CDT: 1685/3/-1750/7/28
!!!OCY: Deutschland
!!!PPP: Leipzig
!!!ODT: 1738//-1742//
!!!PDT: 1739//-1742//
!!!AFR: fuga; fugue
!!!AST: polyphony
!!!AMT: simple duple
!!!SCA: Bach-Werke-Verzeichnis
!!!YOR: Bach Gesellschaft
!!!SMS: British Library, various
!!!AIN: cemba; clavi
!!!EEV: 1.0
!!!RDT: 1986 November 27
!!!YER: 1994 August 10
!!!EFL: 29/48
!!!VTS: 268660237
